X:8
T:Rose Tree
M:2/4
Q:1/4=100
L:1/8
K:D
%%MIDI channel 1
%%MIDI program 72
%%MIDI transpose 8
%%MIDI grace 1/8
%%MIDI ratio 3 1
f/e/|dB AF|A>B AB|d2 f/e/d/e/|fe ef/e/|dB AF|A>B AB|d2 f/e/d/e/|fdd::
   d|fe fg|a2  gf|eb ba      |be ef/e/|dB AF|A2  AB|d2 f/e/d/e/|fdd:|

